!!!SOCIAL_FUNCTION:	songs with treatment of the sick
!!!PDT:	1943
!!!OTL: No_8_Look_at_This_Sick_Person.krn
!!!REG: British Columbia
**kern
*staff1
=1-
*clefF4
*k[f#c#g#d#a#]
*M2/4
16B\LL
16B\J
8A#\J
8B\L
8B\J
=2
4B\
16B\
8.r
=3
8B\L
16B\L
16B\JJ
8B\L
8B\J
=4
4B\
16B`\
8.r
=5!|:
4B\
4B\
=6
4A#\
16B`\
8.r
=7
16B\LL
16B\J
8B\J
8B\L
8B\J
=8
4A#\
16B`\
8.r
=9
8B\L
16A#\L
16A#\JJ
16A#\LL
16A#\J
8A#\J
=10
4A#\
16B`\
8.r
=11
8B\L
16B\L
16A#\JJ
4A#\
=12
8A#\L
8A#\J
16B`\
8.r
=13
8B\L
8A#\J
8A#\L
8A#\J
=14
4A#\
16B\
8.r
=15
4B\
4B\
=16
8A#\L
8A#\J
16B`\
8.r
=17
16B\LL
16B\
16B\
16B\JJ
8B\L
16B\L
16G#\JJ
=18
4A#\
16B\
8.r
=19
8B\L
16B\L
16B\JJ
8A#\L
8A#\J
=20
4A#\
16B\
8.r
=21
8B\L
16c#\L
16B\JJ
8A#\L
16A#\Jk
16r
=22
4A#\
16B\
8.r
==:|!
*-
